X:26
T:Black 
R:reel
C:Bruce Osborne - July 2002
Z:abc by bosborne@kos.net
M:2/4
L:1/8
K:Cmaj
G/F/|E/C/B,/C/ G,/C/B,/C/|E/C/E/G/ c/e/d/c/|B/G/^F/G/ D/G/^F/G/|B/G/B/d/ gG/F/|\
E/C/B,/C/ G,/C/B,/C/|E/C/E/G/ c/e/d/c/|B/G/^F/G/ D/G/B/d/|c/B/e/d/ c:|
|:e/f/|g/e/c/A/ G/E/G/c/|e/g/e/d/ cB/c/|d/B/G/E/ D/G/B/d/|c/B/c/d/ ee/f/|\
g/e/c/A/ G/E/G/c/|e/g/e/d/ cB/c/|d/B/G/E/ D/G/B/d/|c/B/e/d/ c:|
